icons/communication/message-arrow-left-24.svg

<svg width="24" height="24" viewBox="0 0 24 24" fill="none" xmlns="http://www.w3.org/2000/svg">
<path d="M10.6427 12.2947L12.7776 14.6389C12.9203 14.7824 13.0035 14.9795 13.0092 15.1875C13.015 15.3955 12.9428 15.5975 12.8083 15.7495C12.6738 15.9015 12.4879 15.9913 12.2911 15.9994C12.0943 16.0075 11.9024 15.9331 11.7572 15.7926L8.23712 12.082C8.16229 12.0082 8.10263 11.9188 8.06184 11.8196C8.02105 11.7204 8 11.6134 8 11.5052C8 11.397 8.02105 11.29 8.06184 11.1907C8.10263 11.0915 8.16229 11.0022 8.23712 10.9283L11.7572 7.21781C11.8287 7.14587 11.913 7.08961 12.0052 7.05228C12.0974 7.01495 12.1957 6.9973 12.2944 7.00034C12.3932 7.00337 12.4903 7.02705 12.5803 7.06999C12.6703 7.11293 12.7514 7.17428 12.8188 7.2505C12.8862 7.32672 12.9387 7.4163 12.9731 7.51407C13.0076 7.61183 13.0233 7.71583 13.0195 7.82007C13.0157 7.9243 12.9923 8.0267 12.9508 8.12135C12.9093 8.216 12.8504 8.30102 12.7776 8.3715L10.6427 10.7157H16.2526C16.4508 10.7157 16.6409 10.7989 16.7811 10.9469C16.9213 11.095 17 11.2958 17 11.5052C17 11.7146 16.9213 11.9154 16.7811 12.0634C16.6409 12.2115 16.4508 12.2947 16.2526 12.2947H10.6427Z" fill="black"/>
<path fill-rule="evenodd" clip-rule="evenodd" d="M3.00001 11.5C3.00001 12.8408 3.27821 14.1184 3.78057 15.2767L2.08244 19.3131C1.7836 20.0234 2.36666 20.7906 3.13105 20.6928L8.3135 20.03C9.57728 20.6513 10.9989 21 12.5 21C17.7467 21 22 16.7467 22 11.5C22 6.25329 17.7467 2 12.5 2C7.2533 2 3.00001 6.25329 3.00001 11.5ZM12.5 3.5C8.08173 3.5 4.50001 7.08172 4.50001 11.5C4.50001 12.7385 4.78091 13.9092 5.28177 14.9539C5.39825 15.1969 5.37227 15.4713 5.23708 15.6828L3.80161 19.0948L8.34898 18.5132C8.48487 18.4958 8.61691 18.516 8.73469 18.5656C8.75906 18.5752 8.78317 18.5862 8.80691 18.5986C9.91092 19.1742 11.1663 19.5 12.5 19.5C16.9183 19.5 20.5 15.9183 20.5 11.5C20.5 7.08172 16.9183 3.5 12.5 3.5Z" fill="black"/>
</svg>

<svg xmlns="http://www.w3.org/2000/svg" width="24" height="24"><path d="M10.643 12.295l2.135 2.344a.81.81 0 01.231.549.815.815 0 01-.2.561.731.731 0 01-.518.25.725.725 0 01-.534-.206l-3.52-3.711a.827.827 0 010-1.154l3.52-3.71a.712.712 0 01.823-.148.75.75 0 01.239.18.83.83 0 01.132.87.789.789 0 01-.173.251l-2.135 2.345h5.61a.73.73 0 01.528.23.818.818 0 010 1.117.728.728 0 01-.528.232h-5.61z"/><path fill-rule="evenodd" d="M3 11.5c0 1.34.278 2.618.78 3.777l-1.698 4.036a1 1 0 001.05 1.38l5.181-.663A9.5 9.5 0 103 11.5zm9.5-8a8 8 0 00-7.218 11.454.75.75 0 01-.045.729l-1.435 3.412 4.547-.582a.746.746 0 01.458.086A8 8 0 1012.5 3.5z"/></svg>
